X:1
T:Carolan's Dream
T:Turlough O'Carolan
T:arr. sandy stehling
L:1/8
Q:1/4=100
M:2/4
K:C
V:1 treble nm="MusicXML Part"
V:1
"^\n" z2 AB |: [A,EAc]2 [DB][F,A] | [G,DG]2 AB | [A,EAc]2 [DB][F,A] | [G,DG]2 cd | [CGe]2 [B,d]e | %6
 [A,Ec]d/c/ [DB][CA] | [F,CFA]4 | [G,B,DG]2 de | [DAdf]2 fg | [CEGce]2 [Ge][Af] | [A,FAd]^c de | %12
 [FA=cfa]3 ^g | [A,Acea]g ed | cA B^G | [F,CFA]4 |1 [A,CFA]2 AB :| [F,CFA]2 e2 |: [CEGcg]e de | %19
 [G,DBg]2 ga | [CEGcg]e de | [G,DBg]2 e2 | [A,cea]^g ab | [Fca]=g eg | [Eegb]4 | [A,cea]b ag | %26
 [DAd^f]2 fg | [CEGce]2 [Ge][A=f] | [A,FAd]^c de | [FA=cfa]3 ^g | [A,Acea]g ed | cA [Bd]^G | %32
 [F,CFA]4 |1 [F,CFA]2 e2 :| [F,CFA]4!D.C.! |] %35

